48x48/apps/wargus.svg

<svg xmlns="http://www.w3.org/2000/svg" width="48" height="48" version="1.1">
 <g transform="translate(0,-1004.3622)">
  <rect style="fill:#9e7625" width="40" height="40" x="-1048.36" y="-44" rx="2" ry="2" transform="matrix(0,-1,-1,0,0,0)"/>
  <path style="opacity:0.2;fill:#f4f4f7" d="m 4,1011.3622 0,-1 c 0,-1.108 0.892,-2 2,-2 l 36,0 c 1.108,0 2,0.892 2,2 l 0,1 c 0,-1.108 -0.892,-2 -2,-2 l -36,0 c -1.108,0 -2,0.892 -2,2 z"/>
  <path style="opacity:0.2" d="m 4,1046.3622 0,1 c 0,1.108 0.892,2 2,2 l 36,0 c 1.108,0 2,-0.892 2,-2 l 0,-1 c 0,1.108 -0.892,2 -2,2 l -36,0 c -1.108,0 -2,-0.892 -2,-2 z"/>
  <g style="opacity:0.2" transform="matrix(0.268007,0,0,0.26950468,-134.09287,584.0039)">
   <path d="m 552.50875,1703.1004 c -0.46006,-0.7444 1.00578,-2.8875 2.80213,-4.7625 1.79634,-1.875 4.75983,-4.3825 4.75983,-5.5722 0,-1.1897 -5.89207,-16.0858 -10.8125,-33.1026 -7.30674,-25.2695 -8.85569,-31.6385 -11.7724,-34.7542 -1.96413,-2.0982 -3.57115,-4.3396 -3.57115,-4.8232 0,-0.4835 6.33694,-0.8622 14.08206,-0.8342 l 8.86012,0.032 c 4.92438,-0.1985 4.07083,0.1671 0.65923,2.9606 -1.89326,1.5501 -2.32185,3.6094 -2.32185,4.5761 0,1.9244 5.0395,20.8135 8.92289,34.2387 1.51959,5.1596 2.93823,9.3731 5.4314,13.9159 0.86758,0.2077 2.03067,-3.1511 7.55493,-23.7198 8.80779,-32.7944 8.95652,-32.0576 13.09978,-32.0576 l 3.51435,0 7.31285,28.3107 c 4.24427,16.4311 7.87495,27.761 8.58951,27.5315 1.40377,-0.4508 11.12705,-35.3993 13.18938,-47.9353 1.08989,-6.6249 0.21758,-8.5779 -1.53799,-12.2775 -1.2161,-2.5628 -1.62171,-4.8525 -0.97157,-5.4846 1.74951,-1.7011 21.05303,-8.7826 23.76121,-8.7826 3.05529,0 2.25893,2.5608 -2.82997,9.1004 -5.58261,7.1739 -5.12938,14.8859 -10.75491,34.0845 -2.82421,9.6384 -6.84144,22.5588 -8.92716,28.7119 -1.93299,5.7025 -1.71891,10.0448 -1.81235,13.5012 -0.1475,5.4564 0.60701,8.705 3.64096,11.6117 2.57435,2.4664 3.93633,4.0636 3.68049,5.0914 -0.37739,1.5161 -9.87147,1.7932 -18.59102,1.7932 -10.04931,0 -14.63072,-0.5564 -14.74521,-2.4155 -0.0514,-0.8353 1.91947,-1.9335 3.58059,-3.3624 4.04278,-2.9976 4.07787,-4.4322 3.11672,-8.2279 -2.95558,-10.9648 -9.17924,-39.8245 -10.18591,-41.6519 -0.4965,-0.9013 -2.0942,-0.3722 -2.92489,4.4108 -2.48465,12.8894 -7.49489,27.0801 -8.61776,38.716 0.3175,2.364 0.40766,3.8396 2.88757,5.7312 2.77243,2.1146 4.33597,3.5929 4.44101,4.6172 0.18116,1.7667 -8.45536,2.1825 -18.23363,2.1825 -8.46609,0 -14.75962,-0.5168 -15.27674,-1.3535 z"/>
  </g>
  <g style="fill:#eeea02" transform="matrix(0.268007,0,0,0.26950468,-134.09287,583.00392)">
   <path style="fill:#ffde12" d="m 552.50875,1703.1004 c -0.46006,-0.7444 1.00578,-2.8875 2.80213,-4.7625 1.79634,-1.875 4.75983,-4.3825 4.75983,-5.5722 0,-1.1897 -5.89207,-16.0858 -10.8125,-33.1026 -7.30674,-25.2695 -8.85569,-31.6385 -11.7724,-34.7542 -1.96413,-2.0982 -3.57115,-4.3396 -3.57115,-4.8232 0,-0.4835 6.33694,-0.8622 14.08206,-0.8342 l 8.86012,0.032 c 4.92438,-0.1985 4.07083,0.1671 0.65923,2.9606 -1.89326,1.5501 -2.32185,3.6094 -2.32185,4.5761 0,1.9244 5.0395,20.8135 8.92289,34.2387 1.51959,5.1596 2.93823,9.3731 5.4314,13.9159 0.86758,0.2077 2.03067,-3.1511 7.55493,-23.7198 8.80779,-32.7944 8.95652,-32.0576 13.09978,-32.0576 l 3.51435,0 7.31285,28.3107 c 4.24427,16.4311 7.87495,27.761 8.58951,27.5315 1.40377,-0.4508 11.12705,-35.3993 13.18938,-47.9353 1.08989,-6.6249 0.21758,-8.5779 -1.53799,-12.2775 -1.2161,-2.5628 -1.62171,-4.8525 -0.97157,-5.4846 1.74951,-1.7011 21.05303,-8.7826 23.76121,-8.7826 3.05529,0 2.25893,2.5608 -2.82997,9.1004 -5.58261,7.1739 -5.12938,14.8859 -10.75491,34.0845 -2.82421,9.6384 -6.84144,22.5588 -8.92716,28.7119 -1.93299,5.7025 -1.71891,10.0448 -1.81235,13.5012 -0.1475,5.4564 0.60701,8.705 3.64096,11.6117 2.57435,2.4664 3.93633,4.0636 3.68049,5.0914 -0.37739,1.5161 -9.87147,1.7932 -18.59102,1.7932 -10.04931,0 -14.63072,-0.5564 -14.74521,-2.4155 -0.0514,-0.8353 1.91947,-1.9335 3.58059,-3.3624 4.04278,-2.9976 4.07787,-4.4322 3.11672,-8.2279 -2.95558,-10.9648 -9.17924,-39.8245 -10.18591,-41.6519 -0.4965,-0.9013 -2.0942,-0.3722 -2.92489,4.4108 -2.48465,12.8894 -7.49489,27.0801 -8.61776,38.716 0.3175,2.364 0.40766,3.8396 2.88757,5.7312 2.77243,2.1146 4.33597,3.5929 4.44101,4.6172 0.18116,1.7667 -8.45536,2.1825 -18.23363,2.1825 -8.46609,0 -14.75962,-0.5168 -15.27674,-1.3535 z"/>
  </g>
  <g style="fill:#f4f4f7" transform="matrix(0.268007,0,0,0.26950468,-134.09287,583.00392)">
   <path style="fill:#f4f4f7;opacity:0.2" transform="matrix(3.7312458,0,0,3.7105107,500.33346,1563.4544)" d="M 38.519531 10 C 37.79372 10 32.621225 11.908733 32.152344 12.367188 C 32.023031 12.493615 32.049575 12.867977 32.205078 13.333984 C 32.824639 12.834738 37.806409 11 38.519531 11 C 38.607305 11 38.678281 11.012966 38.742188 11.029297 C 39.140218 10.312338 39.062018 10 38.519531 10 z M 24.085938 15.023438 C 22.975515 15.023438 22.934768 14.823865 20.574219 23.662109 C 19.093678 29.20547 18.783299 30.110664 18.550781 30.054688 C 17.882594 28.830382 17.501011 27.695224 17.09375 26.304688 C 16.168239 23.087239 15.050651 18.883704 14.802734 17.587891 C 14.732587 17.782672 14.703125 17.962058 14.703125 18.078125 C 14.703125 18.59676 16.052974 23.686533 17.09375 27.304688 C 17.501011 28.695224 17.882594 29.830382 18.550781 31.054688 C 18.783299 31.110664 19.093678 30.20547 20.574219 24.662109 C 22.934768 15.823865 22.975515 16.023438 24.085938 16.023438 L 25.027344 16.023438 L 26.988281 23.652344 C 28.125775 28.080602 29.097555 31.134117 29.289062 31.072266 C 29.665283 30.950773 32.2715 21.532808 32.824219 18.154297 C 32.956709 17.344456 32.969021 16.80865 32.912109 16.355469 C 32.891734 16.601756 32.8758 16.83901 32.824219 17.154297 C 32.2715 20.532808 29.665283 29.950773 29.289062 30.072266 C 29.097555 30.134117 28.125775 27.080602 26.988281 22.652344 L 25.027344 15.023438 L 24.085938 15.023438 z M 12.773438 15.037109 C 10.697691 15.029563 9 15.131413 9 15.261719 C 9 15.358435 9.2719223 15.733474 9.609375 16.142578 C 10.274675 16.076542 11.416262 16.032176 12.773438 16.037109 L 15.134766 16.046875 C 15.195023 15.978066 15.248525 15.907679 15.326172 15.84375 C 16.240505 15.090889 16.468206 14.993378 15.148438 15.046875 L 12.773438 15.037109 z M 32.013672 33.646484 C 32.011961 33.760966 32.0029 33.907746 32 34.015625 C 31.960469 35.48615 32.163443 36.361162 32.976562 37.144531 C 33.224405 37.383308 33.376207 37.560122 33.535156 37.742188 C 33.778114 37.680878 33.939973 37.610158 33.962891 37.517578 C 34.031458 37.240581 33.666506 36.809238 32.976562 36.144531 C 32.291935 35.484953 32.052479 34.736869 32.013672 33.646484 z M 21.070312 35.083984 C 21.04732 35.263144 21.016799 35.447997 21 35.623047 C 21.085092 36.260156 21.108804 36.658174 21.773438 37.167969 C 22.062226 37.389466 22.258335 37.563756 22.445312 37.736328 C 22.777072 37.65342 22.978891 37.549864 22.964844 37.412109 C 22.936692 37.136056 22.516468 36.737863 21.773438 36.167969 C 21.285069 35.793374 21.14534 35.476981 21.070312 35.083984 z M 15.818359 35.21875 C 15.555596 35.560044 15.073243 35.995879 14.734375 36.351562 C 14.252941 36.856884 13.859123 37.434146 13.982422 37.634766 C 14.017932 37.692542 14.162239 37.745452 14.384766 37.791016 C 14.499231 37.642964 14.594444 37.498436 14.734375 37.351562 C 15.215807 36.846241 16.009766 36.170239 16.009766 35.849609 C 16.009766 35.79244 15.90834 35.493098 15.818359 35.21875 z M 26.875 35.484375 C 26.753947 35.783164 26.49052 36.068883 25.988281 36.443359 C 25.543089 36.828455 25.015521 37.124492 25.029297 37.349609 C 25.040656 37.535093 25.217205 37.672027 25.570312 37.771484 C 25.709459 37.665782 25.845617 37.566765 25.988281 37.443359 C 26.966146 36.71425 27.053576 36.304704 26.875 35.484375 z"/>
  </g>
 </g>
</svg>

<svg xmlns="http://www.w3.org/2000/svg" width="48" height="48"><g transform="translate(0 -1004.362)"><rect style="fill:#9e7625" width="40" height="40" x="-1048.36" y="-44" rx="2" ry="2" transform="matrix(0 -1 -1 0 0 0)"/><path style="opacity:.2;fill:#f4f4f7" d="M4 1011.362v-1c0-1.108.892-2 2-2h36c1.108 0 2 .892 2 2v1c0-1.108-.892-2-2-2H6c-1.108 0-2 .892-2 2z"/><path style="opacity:.2" d="M4 1046.362v1c0 1.108.892 2 2 2h36c1.108 0 2-.892 2-2v-1c0 1.108-.892 2-2 2H6c-1.108 0-2-.892-2-2z"/><path d="M552.509 1703.1c-.46-.744 1.006-2.887 2.802-4.762 1.796-1.875 4.76-4.383 4.76-5.572 0-1.19-5.892-16.086-10.813-33.103-7.307-25.27-8.855-31.638-11.772-34.754-1.964-2.098-3.571-4.34-3.571-4.823 0-.484 6.337-.863 14.082-.835l8.86.032c4.924-.198 4.07.168.66 2.961-1.894 1.55-2.323 3.61-2.323 4.576 0 1.925 5.04 20.814 8.923 34.239 1.52 5.16 2.938 9.373 5.432 13.916.867.208 2.03-3.151 7.554-23.72 8.808-32.794 8.957-32.058 13.1-32.058h3.515l7.312 28.311c4.245 16.431 7.875 27.761 8.59 27.532 1.404-.451 11.127-35.4 13.19-47.936 1.09-6.625.217-8.578-1.539-12.277-1.216-2.563-1.621-4.853-.971-5.485 1.75-1.7 21.053-8.782 23.761-8.782 3.055 0 2.259 2.56-2.83 9.1-5.583 7.174-5.13 14.886-10.755 34.084-2.824 9.639-6.841 22.56-8.927 28.712-1.933 5.703-1.719 10.045-1.812 13.502-.148 5.456.607 8.705 3.64 11.611 2.575 2.467 3.937 4.064 3.681 5.092-.377 1.516-9.871 1.793-18.591 1.793-10.05 0-14.63-.557-14.745-2.416-.052-.835 1.92-1.933 3.58-3.362 4.043-2.998 4.078-4.432 3.117-8.228-2.955-10.965-9.18-39.824-10.186-41.652-.496-.901-2.094-.372-2.925 4.411-2.484 12.89-7.495 27.08-8.617 38.716.317 2.364.407 3.84 2.887 5.731 2.773 2.115 4.336 3.593 4.441 4.617.181 1.767-8.455 2.183-18.234 2.183-8.466 0-14.76-.517-15.276-1.354z" transform="matrix(.268 0 0 .2695 -134.093 584.004)" style="opacity:.2"/><g style="fill:#eeea02"><path style="fill:#ffde12" d="M552.509 1703.1c-.46-.744 1.006-2.887 2.802-4.762 1.796-1.875 4.76-4.383 4.76-5.572 0-1.19-5.892-16.086-10.813-33.103-7.307-25.27-8.855-31.638-11.772-34.754-1.964-2.098-3.571-4.34-3.571-4.823 0-.484 6.337-.863 14.082-.835l8.86.032c4.924-.198 4.07.168.66 2.961-1.894 1.55-2.323 3.61-2.323 4.576 0 1.925 5.04 20.814 8.923 34.239 1.52 5.16 2.938 9.373 5.432 13.916.867.208 2.03-3.151 7.554-23.72 8.808-32.794 8.957-32.058 13.1-32.058h3.515l7.312 28.311c4.245 16.431 7.875 27.761 8.59 27.532 1.404-.451 11.127-35.4 13.19-47.936 1.09-6.625.217-8.578-1.539-12.277-1.216-2.563-1.621-4.853-.971-5.485 1.75-1.7 21.053-8.782 23.761-8.782 3.055 0 2.259 2.56-2.83 9.1-5.583 7.174-5.13 14.886-10.755 34.084-2.824 9.639-6.841 22.56-8.927 28.712-1.933 5.703-1.719 10.045-1.812 13.502-.148 5.456.607 8.705 3.64 11.611 2.575 2.467 3.937 4.064 3.681 5.092-.377 1.516-9.871 1.793-18.591 1.793-10.05 0-14.63-.557-14.745-2.416-.052-.835 1.92-1.933 3.58-3.362 4.043-2.998 4.078-4.432 3.117-8.228-2.955-10.965-9.18-39.824-10.186-41.652-.496-.901-2.094-.372-2.925 4.411-2.484 12.89-7.495 27.08-8.617 38.716.317 2.364.407 3.84 2.887 5.731 2.773 2.115 4.336 3.593 4.441 4.617.181 1.767-8.455 2.183-18.234 2.183-8.466 0-14.76-.517-15.276-1.354z" transform="matrix(.268 0 0 .2695 -134.093 583.004)"/></g><g style="fill:#f4f4f7"><path style="fill:#f4f4f7;opacity:.2" transform="matrix(1 0 0 1 0 1004.362)" d="M38.52 10c-.726 0-5.899 1.909-6.368 2.367-.129.127-.102.501.053.967.62-.5 5.601-2.334 6.315-2.334a.87.87 0 0 1 .222.03c.398-.718.32-1.03-.222-1.03zm-14.434 5.023c-1.11 0-1.151-.2-3.512 8.64-1.48 5.542-1.79 6.448-2.023 6.392-.668-1.225-1.05-2.36-1.457-3.75-.926-3.218-2.043-7.421-2.291-8.717-.07.195-.1.374-.1.49 0 .519 1.35 5.609 2.39 9.227.408 1.39.79 2.525 1.458 3.75.232.056.543-.85 2.023-6.393 2.36-8.838 2.402-8.639 3.512-8.639h.941l1.961 7.63c1.138 4.428 2.11 7.481 2.301 7.42.376-.122 2.983-9.54 3.535-12.919.133-.81.145-1.345.088-1.799-.02.247-.036.484-.088.8-.552 3.378-3.159 12.796-3.535 12.917-.191.062-1.163-2.991-2.3-7.42l-1.962-7.629h-.941zm-11.313.014C10.698 15.03 9 15.131 9 15.262c0 .096.272.471.61.88.665-.065 1.806-.11 3.163-.105l2.362.01c.06-.069.114-.14.191-.203.915-.753 1.142-.85-.178-.797l-2.375-.01zm19.24 18.61c-.001.114-.01.26-.013.369-.04 1.47.163 2.345.977 3.129.247.238.4.415.558.597.243-.061.405-.132.428-.224.068-.277-.296-.709-.986-1.373-.685-.66-.925-1.408-.963-2.499zM21.07 35.083c-.023.18-.053.364-.07.539.085.637.109 1.035.773 1.545.29.221.485.396.672.568.332-.083.534-.186.52-.324-.028-.276-.449-.674-1.192-1.244-.488-.375-.628-.691-.703-1.084zm-5.252.135c-.262.341-.745.777-1.084 1.133-.481.505-.875 1.082-.752 1.283.036.058.18.11.403.156.114-.148.21-.293.35-.44.48-.505 1.275-1.18 1.275-1.501 0-.058-.102-.357-.192-.631zm11.057.265c-.121.3-.384.585-.887.96-.445.384-.972.68-.959.906.012.185.188.322.541.421.14-.105.276-.204.418-.328.978-.729 1.066-1.138.887-1.959z"/></g></g></svg>
